!!!COM: Haydn, Franz Joseph
!!!OTL: String Quartet in D Major
!!!OPS: Opus 50
!!!ONM: No. 6
!!!OMD: Finale: Allegro con spirito
!!!OMV: 4
!!!SCT: H III:49
!!!SCA: Thematisch-bibliographisches Werkevererzeichnis (A. van Hoboken)
!!!YOR: Trautwein Edition
!!!ENC: Frances Bennion
!!!CDT: 1732/3/31/-1809/5/31/
!!!CNT: Oesterreich
!!!YEC: Copyright (c) 1994, 2000 Center for Computer Assisted Research in the Humanities
!!!YEM: Rights to all derivative editions reserved.
!!!YEM: Refer to licensing agreement for further details.
!!!YEN: United States of America
**kern	**kern	**kern	**kern
*k[f#c#]	*k[f#c#]	*k[f#c#]	*k[f#c#]
*D:	*D:	*D:	*D:
*clefF4	*clefC3	*clefG	*clefG
*M2/4	*M2/4	*M2/4	*M2/4
4.r	4.r	4.r	4.r
8r	8r	8r	16a
.	.	.	16a
=1	=1	=1	=1
4.r	4.r	2r	16a
.	.	.	16a
.	.	.	16a
.	.	.	16a
.	.	.	16a
.	.	.	16a
8D	8A	.	16a
.	.	.	16a
=2	=2	=2	=2
8D	8A	4.r	4g
8D	8A	.	.
8D	8A	.	8f#
8E	8G	8c#	8e
=3	=3	=3	=3
8F#	4F#	8d	8d
8BB	.	8f#	8dd
8D	8r	8d	8b
8E	8d	8B	8g#
=4	=4	=4	=4
4AA	4c#	4c#	8a
.	.	.	8A
4r	4r	4r	8r
.	.	.	16ee
.	.	.	16ee
=5	=5	=5	=5
4.r	4.r	4.r	16ee
.	.	.	16ee
.	.	.	16ee
.	.	.	16ee
.	.	.	16ee
.	.	.	16ee
8A	8e	8g	16ee
.	.	.	16ee
=6	=6	=6	=6
8A	8e	8g	4dd
8A	8e	8g	.
8A	8e	8g	8cc#
8B	8e	8g	8b
=7	=7	=7	=7
4.c#	4.e	4.g	8a
.	.	.	8aa
.	.	.	8gg
8A	8e	8g	8cc#
=8	=8	=8	=8
4d	4d	4f#	8dd
.	.	.	8d
4r	4r	4r	8r
.	.	.	16d
.	.	.	16d
=9	=9	=9	=9
2r	2r	2r	16d
.	.	.	16d
.	.	.	16d
.	.	.	16d
.	.	.	16d
.	.	.	16d
.	.	.	16d
.	.	.	16d
=10	=10	=10	=10
8r	8r	8r	8G
16GG	8d	8g	8b
16BB	.	.	.
8D	8d	8f#	8a
8r	8r	8r	16d
.	.	.	16d
=11	=11	=11	=11
2r	2r	2r	16d
.	.	.	16d
.	.	.	16d
.	.	.	16d
.	.	.	16d
.	.	.	16d
.	.	.	16d
.	.	.	16d
=12	=12	=12	=12
8r	8r	8r	8A
8C#	8A	8e	8g
8D	8D	8d	8f#
8r	8r	8d	16d
.	.	.	16d
=13	=13	=13	=13
8r	8r	8c#	16d
.	.	.	16d
8DD	8F#	8c	16d
.	.	.	16d
8EE	8G	8B	16d
.	.	.	16d
8FF#	8F#	8A#	16d
.	.	.	16d
=14	=14	=14	=14
4GG	8G	8B	8G
.	8E	8c#	8b
8FF#	8F#	8d	8a
8D	8d	8r	16d
.	.	.	16d
=15	=15	=15	=15
8C#	8e	8r	16d
.	.	.	16d
8C	8f#	8A	16d
.	.	.	16d
8BB	8g	8G	16d
.	.	.	16d
8BB-	8g#	8d	16d
.	.	.	16d
=16	=16	=16	=16
8AA	8a	8c#	8A
8C#	8A	8e	8g
8D	8d	8d	8f#
8r	8r	8r	16d
.	.	.	16c#
=17	=17	=17	=17
8D	8A	8f#	16d
.	.	.	16A
8r	8r	8r	16f#
.	.	.	16e
8D	8A	8f#	16f#
.	.	.	16d
8r	8r	8r	16a
.	.	.	16g
=18	=18	=18	=18
8D	8A	8f#	16a
.	.	.	16f#
8r	8r	8r	16dd
.	.	.	16cc#
8D	8A	8f#	16dd
.	.	.	16a
8r	8r	8r	16ff#
.	.	.	16ee
=19	=19	=19	=19
4D	4A	4f#	16ff#
.	.	.	16dd
.	.	.	16aa
.	.	.	16ff#
8r	8r	8r	16ddd
.	.	.	16aa
16DD	8d	8f#	16ff#
16FF#	.	.	16dd
=20	=20	=20	=20
4AA	8c#	8e	16a
.	.	.	16aa
.	8ee	8gg	16ccc#
.	.	.	16aa
4r	8dd	8ff#	16ddd
.	.	.	16aa
.	8d	8f#	16ff#
.	.	.	16dd
=21	=21	=21	=21
4AA	8c#	8e	16a
.	.	.	16aa
.	8ee	8gg	16ccc#
.	.	.	16aa
4r	8dd	8ff#	16ddd
.	.	.	16aa
.	8d	8f#	16ff#
.	.	.	16dd
=22	=22	=22	=22
4AA	8c#	8e	4a
.	4.r	4.r	.
4r	.	.	8r
.	.	.	16ee
.	.	.	16ee
=23	=23	=23	=23
2r	4.r	4.r	16ee
.	.	.	16ee
.	.	.	16ee
.	.	.	16ee
.	.	.	16ee
.	.	.	16ee
.	8a	8cc	16ff
.	.	.	16ee
=24	=24	=24	=24
2r	8g#	8b	16ee
.	.	.	16ee
.	8a	8cc	16dd#
.	.	.	16ee
.	8g#	8b	16ee
.	.	.	16ee
.	8e	8g#	16dd
.	.	.	16ee
=25	=25	=25	=25
2r	8e	8a	16cc
.	.	.	16ee
.	8e	8g#	16b
.	.	.	16ee
.	8e	8a	16cc
.	.	.	16ee
.	8e	8f#	16a
.	.	.	16ee
=26	=26	=26	=26
2r	4e	4g#	16g#
.	.	.	16b
.	.	.	16ee
.	.	.	16gg#
.	4r	4r	8bb
.	.	.	16ee
.	.	.	16ee
=27	=27	=27	=27
4.r	4.r	2r	16ee
.	.	.	16ee
.	.	.	16ee
.	.	.	16ee
.	.	.	16ee
.	.	.	16ee
8A	8c	.	16ff
.	.	.	16ee
=28	=28	=28	=28
8G#	8B	4.r	16ee
.	.	.	16ee
8A	8c	.	16dd#
.	.	.	16ee
8G#	8B	.	16ee
.	.	.	16ee
8E	8G#	8B	16dd
.	.	.	16ee
=29	=29	=29	=29
8E	8A	8c	16cc
.	.	.	16ee
8E	8G#	8d	16b
.	.	.	16ee
8E	8A	8c	16cc
.	.	.	16ee
8E	8F#	8d#	16a
.	.	.	16ee
=30	=30	=30	=30
[2E	8G#	4.e	16g#
.	.	.	16b
.	4B	.	16ee
.	.	.	16gg#
.	.	.	16bb
.	.	.	16gg#
.	16c	8d#	16aa
.	16A	.	16ff#
=31	=31	=31	=31
2E_	8B	8e	16gg#
.	.	.	16ee
.	4B	4e	16gg#
.	.	.	16aa
.	.	.	16bb
.	.	.	16gg#
.	16c	8d#	16aa
.	16A	.	16ff#
=32	=32	=32	=32
2E_	8B	8e	16gg#
.	.	.	16ee
.	4B	4e	16gg#
.	.	.	16aa
.	.	.	16bb
.	.	.	16gg#
.	16c	8d#	16aa
.	16A	.	16ff#
=33	=33	=33	=33
8E]	8B	2e	16gg#
.	.	.	16ee
8F#	8A	.	16aa
.	.	.	16ee
8G#	8G#	.	16bb
.	.	.	16ee
8A	8F#	.	16ccc#
.	.	.	16ee
=34	=34	=34	=34
4B	4E	4G#	16ddd
.	.	.	16bb
.	.	.	16gg#
.	.	.	16ee
4r	4r	4r	16dd
.	.	.	16b
.	.	.	16g#
.	.	.	16e
=35	=35	=35	=35
4r	4E	16dd	16d
.	.	16b	16d
.	.	16g#	16d
.	.	16e	16d
16d	8G#	8d	16d
16B	.	.	16d
16G#	8G#	8B	16d
16E	.	.	16d
=36	=36	=36	=36
4EE	4B	4G#	4d
4r	8r	8r	8r
.	8c#	8e	16gg#
.	.	.	16aa
=37	=37	=37	=37
2r	8d	[2e	16gg#
.	.	.	16aa
.	8c#	.	16bb
.	.	.	16aa
.	8c#	.	16bb
.	.	.	16aa
.	8c#	.	16gg#
.	.	.	16aa
=38	=38	=38	=38
2r	8d	2e_	16gg#
.	.	.	16aa
.	8c#	.	16bb
.	.	.	16aa
.	8c#	.	16bb
.	.	.	16aa
.	8c#	.	16gg#
.	.	.	16aa
=39	=39	=39	=39
2r	8d	2e]	16gg#
.	.	.	16aa
.	8c#	.	16bb
.	.	.	16aa
.	8c#	.	16bb
.	.	.	16aa
.	8c#	.	16ddd
.	.	.	16ccc#
=40	=40	=40	=40
8AA	8c#	8e	16bb
.	.	.	16aa
8r	8r	8r	16fff#
.	.	.	16eee
8AA	8c#	8e	16ddd
.	.	.	16ccc#
8r	8r	8r	16aaa
.	.	.	16ggg#
=41	=41	=41	=41
8AA	8c#	8e	16fff#
.	.	.	16eee
8AA	8c#	8e	8cccc#
8AA	8c#	8e	8cccc#
8AA	8c#	8e	8cccc#
=42	=42	=42	=42
4AA	4c#	4e	4cccc#
8r	4r	4r	8r
8AA	.	.	16c#
.	.	.	16A
=43	=43	=43	=43
8BB	2r	2r	16d
.	.	.	16A
8C#	.	.	16e
.	.	.	16A
8D	.	.	16f#
.	.	.	16A
8BB	.	.	16g#
.	.	.	16A
=44	=44	=44	=44
4C#	2r	8r	8a
.	.	16g#	8b
.	.	16e	.
4r	.	16a	8cc#
.	.	16e	.
.	.	16b	8dd
.	.	16e	.
=45	=45	=45	=45
2r	8r	8cc#	8ee
.	8d	8a	8ff#
.	8d	8b	8gg#
.	8d#	8cc	8aa
=46	=46	=46	=46
8E	8e	8cc#	2e
8E	16cc#	16ee	.
.	16a	16cc#	.
8E	16cc#	16ee	.
.	16a	16cc#	.
8E	16cc#	16ee	.
.	16a	16cc#	.
=47	=47	=47	=47
8EE	4g#	4dd	2bb
8EE	.	.	.
8EE	4d	4g#	.
8EE	.	.	.
=48	=48	=48	=48
8AA	4c#	4a	4aa
8A	.	.	.
8AA	4r	4r	8r
8r	.	.	8ccc#
=49	=49	=49	=49
8r	8r	8r	4ccc#
8F#	8c#	8a	.
8F#	8c#	8a	16bb
.	.	.	16aa
8F#	8c#	8a	16gg#
.	.	.	16ff#
=50	=50	=50	=50
8r	8r	8r	4ee#
8C#	8g#	8b	.
8C#	8g#	8b	8r
8C#	8g#	8b	8ccc#
=51	=51	=51	=51
8r	8r	8r	4ccc#
8F#	8c#	8a	.
8F#	8c#	8a	16bb
.	.	.	16aa
8F#	8c#	8a	16gg#
.	.	.	16ff#
=52	=52	=52	=52
8r	8r	8r	4ee#
8C#	8g#	8b	.
8C#	8g#	8b	8r
8C#	8g#	8b	8ccc#
=53	=53	=53	=53
8r	8r	8r	4ccc#
8F#	8c#	8a	.
8F#	8c#	8a	16bb
.	.	.	16aa
8F#	8c#	8a	16gg#
.	.	.	16ff#
=54	=54	=54	=54
4.G#	2e	4.b	8.ee
.	.	.	32ff#
.	.	.	32ee
.	.	.	8dd
8A	.	8a	8cc#
=55	=55	=55	=55
8D	8.f#	4f#	8.b
8D	.	.	.
.	16b	.	32cc#
.	.	.	32dd
8E	8a	8e	8cc#
8E	8g#	8d	8b
=56	=56	=56	=56
8AA	4a	4c#	4a
8A	.	.	.
8AA	4r	8r	4r
8r	.	8cc#	.
=57	=57	=57	=57
8r	8r	4cc#	2r
8F#	8A	.	.
8F#	8A	16b	.
.	.	16a	.
8F#	8A	16g#	.
.	.	16f#	.
=58	=58	=58	=58
8r	8r	4e#	8r
8G#	8B	.	16ddd
.	.	.	16ccc#
8G#	8B	8r	8ccc#
8G#	8B	8cc#	8r
=59	=59	=59	=59
8r	8r	4cc#	2r
8F#	8A	.	.
8F#	8A	16b	.
.	.	16a	.
8F#	8A	16g#	.
.	.	16f#	.
=60	=60	=60	=60
8r	8r	4e#	8r
8G#	8B	.	16ddd
.	.	.	16ccc#
8G#	8B	4r	8ccc#
8G#	8B	.	8ccc#
=61	=61	=61	=61
8r	8r	8r	4ccc#
8F#	8c#	8a	.
8F#	8c#	8a	16bb
.	.	.	16aa
8F#	8c#	8a	16gg#
.	.	.	16ff#
=62	=62	=62	=62
4.G#	2e	4.b	8.ee
.	.	.	32ff#
.	.	.	32ee
.	.	.	8dd
8A	.	8a	8cc#
=63	=63	=63	=63
8D	2f#	[2a	[2b
8D	.	.	.
8D	.	.	.
8D	.	.	.
=64	=64	=64	=64
8D	[2f	2a]	2b_
8D	.	.	.
8D	.	.	.
8D	.	.	.
=65	=65	=65	=65
8D	2f_	[2g	2b]
8D	.	.	.
8D	.	.	.
8D	.	.	.
=66	=66	=66	=66
8D	2f]	2g_	4.b
8D	.	.	.
8D	.	.	.
8D	.	.	16a
.	.	.	16b
=67	=67	=67	=67
8C	2e	2g]	[2cc
8C	.	.	.
8C	.	.	.
8C	.	.	.
=68	=68	=68	=68
8AA	2d#	2f#	2cc]
8AA	.	.	.
8AA	.	.	.
8AA	.	.	.
=69	=69	=69	=69
8GG#	[2e	4e	4b 4e
8G#	.	.	.
8G#	.	[4b	[4e [4dd
8G#	.	.	.
=70	=70	=70	=70
8A	2e]	4b]	4e] 4dd]
8A	.	.	.
8A	.	4a	4cc#
8A	.	.	.
=71	=71	=71	=71
4D	4f#	4f#	8b
.	.	.	16ee#
.	.	.	16ff#
4r	4r	4r	16ee#
.	.	.	16ff#
.	.	.	16ee
.	.	.	16dd
=72	=72	=72	=72
4D	4d	4f#	16cc#
.	.	.	16b
.	.	.	16a#
.	.	.	16b
4r	4r	4r	16a#
.	.	.	16b
.	.	.	16dd
.	.	.	16b
=73	=73	=73	=73
8E	4.c#	4.a	4.a
8E	.	.	.
8E	.	.	.
8E	8d	8g#	8b
=74	=74	=74	=74
8AA	8c#	16a	8a
.	.	16a	.
8AA	8c#	16a	8aa
.	.	16a	.
8BB	8d	16a	8gg#
.	.	16a	.
8C#	8e	16a	8gg
.	.	16a	.
=75	=75	=75	=75
8D	4d	16a	8ff#
.	.	16a	.
8D	.	16a	8ff
.	.	16a	.
8E	4r	16a	8ee
.	.	16a	.
8F#	.	16a	8dd#
.	.	16a	.
=76	=76	=76	=76
8E	4.r	4a	8ee
8F#	.	.	16dd
.	.	.	16b
8E	.	8r	16cc#
.	.	.	16a
8E	8e	8d	16b
.	.	.	16g#
=77	=77	=77	=77
4AA	16a	8c#	8a
.	16a	.	.
.	16a	8a	8a
.	16a	.	.
4r	16a	8g#	8b
.	16a	.	.
.	16a	8g	8cc#
.	16a	.	.
=78	=78	=78	=78
2r	16a	8f#	8dd
.	16a	.	.
.	16a	8f	8dd#
.	16a	.	.
.	16a	8e	8ee
.	16a	.	.
.	16a	8d#	8ff#
.	16a	.	.
=79	=79	=79	=79
8r	4a	4e	8ee
8F#	.	.	16dd
.	.	.	16b
8E	8r	8r	16cc#
.	.	.	16a
8E	16B	8d	16b
.	16d	.	16g#
=80	=80	=80	=80
4AA	4c#	4c#	8a
.	.	.	16g#
.	.	.	16a
4r	4r	4r	16g#
.	.	.	16a
.	.	.	16g#
.	.	.	16a
=81	=81	=81	=81
4AA	4c#	8e	8cc#
.	.	16g#	16b#
.	.	16a	16cc#
4r	4r	16g#	16b#
.	.	16a	16cc#
.	.	16g#	16b#
.	.	16a	16cc#
=82	=82	=82	=82
4AA	4c#	8cc#	8ee
.	.	16b#	16dd#
.	.	16cc#	16ee
4r	4r	16b#	16dd#
.	.	16cc#	16ee
.	.	16b#	16dd#
.	.	16cc#	16ee
=83	=83	=83	=83
4AA	4c#	4ee	4gg
4r	4r	4r	4r
=84	=84	=84	=84
4.r	2r	2r	4.r
8DD	.	.	16d
.	.	.	16d
=85	=85	=85	=85
8EE-	2r	2r	16d
.	.	.	16d
8EE	.	.	16d
.	.	.	16d
8FF	.	.	16d
.	.	.	16d
8FF#	.	.	16d
.	.	.	16d
=86	=86	=86	=86
4.GG	2r	2r	4c
.	.	.	8B
8AA	.	.	8A
=87	=87	=87	=87
8BB	2r	2r	8G
8EE	.	.	8g
8GG	.	.	8e
8AA	.	.	8c#
=88	=88	=88	=88
8DD	4.r	2r	4d
8D	.	.	.
8DD	.	.	8r
8r	8D	.	16a
.	.	.	16a
=89	=89	=89	=89
2r	8E-	2r	16a
.	.	.	16a
.	8D	.	16a
.	.	.	16a
.	8G	.	16a
.	.	.	16a
.	8F#	.	16a
.	.	.	16a
=90	=90	=90	=90
2r	[2c	2r	4g
.	.	.	8f#
.	.	.	8e
=91	=91	=91	=91
2r	8c]	2r	8d
.	8B	.	8dd
.	8A	.	8cc
.	8d	.	8f#
=92	=92	=92	=92
4.r	4G	4.r	4g
.	8r	.	8r
8BB	8B	8B	16b
.	.	.	16b
=93	=93	=93	=93
8C	8c	8B	16b
.	.	.	16b
8C#	8c#	8B	16b
.	.	.	16b
8D	8d	8B	16b
.	.	.	16b
8D#	8d#	8B	16b
.	.	.	16b
=94	=94	=94	=94
4.E	4.e	4A	4a
.	.	8G	8g
8F#	8c	8d#	8f#
=95	=95	=95	=95
4.G	4.B	4.e	16e
.	.	.	16g
.	.	.	16b
.	.	.	16ee
.	.	.	16gg
.	.	.	16bb
8A	8c	8d#	16aa
.	.	.	16ff#
=96	=96	=96	=96
4.G	4.B	4.e	16ee
.	.	.	16b
.	.	.	16ee
.	.	.	16ff#
.	.	.	16gg
.	.	.	16bb
8A	8c	8d#	16gg
.	.	.	16ff#
=97	=97	=97	=97
8G	8B	8e	16ee
.	.	.	16bb
8A	8c	8d#	16gg
.	.	.	16ff#
8G	8B	8e	16ee
.	.	.	16bb
8A	8c	8d#	16gg
.	.	.	16ff#
=98	=98	=98	=98
8G	8B	8e	16ee
.	.	.	16bb
8A	8c	8d#	16gg
.	.	.	16ff#
8G	8B	8e	16ee
.	.	.	16bb
8A	8c	8d#	16gg
.	.	.	16ff#
=99	=99	=99	=99
4.G	4.B	4.e	16ee
.	.	.	16ff#
.	.	.	16gg
.	.	.	16ff#
.	.	.	16ee
.	.	.	16dd
8E	8E	8g	16cc#
.	.	.	16b
=100	=100	=100	=100
4F#	4F#	4f#	4f#
4r	8r	8r	8r
.	8d	8f#	16a#
.	.	.	16b
=101	=101	=101	=101
2r	8e	8g	16a#
.	.	.	16b
.	8d	8f#	16cc#
.	.	.	16b
.	8d	8f#	16cc#
.	.	.	16b
.	8d	8f#	16a#
.	.	.	16b
=102	=102	=102	=102
2r	8e	8g	16a#
.	.	.	16b
.	8d	8f#	16cc#
.	.	.	16b
.	8d	8f#	16cc#
.	.	.	16b
.	8d	8f#	16b#
.	.	.	16cc#
=103	=103	=103	=103
2r	[2A#	8g	16b#
.	.	.	16cc#
.	.	8f#	16dd
.	.	.	16cc#
.	.	8f#	16dd
.	.	.	16cc#
.	.	8f#	16b#
.	.	.	16cc#
=104	=104	=104	=104
4.r	2A#]	8g	16cc
.	.	.	16cc#
.	.	8f#	16dd
.	.	.	16cc#
.	.	8f#	16dd
.	.	.	16cc#
8AA#	.	8f#	16gg
.	.	.	16ff#
=105	=105	=105	=105
8BB	8d	16g	16gg
.	.	16f#	16ff#
8AA#	8c#	16g	16gg
.	.	16f#	16ff#
8AA#	8c#	16g	16gg
.	.	16f#	16ff#
8AA#	8c#	16g	16gg
.	.	16f#	16ff#
=106	=106	=106	=106
8BB	8d	16g	16gg
.	.	16f#	16ff#
8AA#	8c#	16g	16gg
.	.	16f#	16ff#
8AA#	8c#	16g	16gg
.	.	16f#	16ff#
8AA#	8c#	16g	16gg
.	.	16f#	16ff#
=107	=107	=107	=107
8BB	16d	8f#	8ddd
.	16d	.	.
8BB	16d	8f#	4bb
.	16d	.	.
8BB	16d	8f#	.
.	16d	.	.
8BB	16d	8f#	[8ff#
.	16d	.	.
=108	=108	=108	=108
8BB	16d	8f#	8ff#]
.	16d	.	.
8BB	16d	8f#	4dd
.	16d	.	.
8BB	16d	8f#	.
.	16d	.	.
8BB	16d	8f#	8b
.	16d	.	.
=109	=109	=109	=109
[2AA#	[2e [2c#	[2g	16ee
.	.	.	16ee
.	.	.	16gg
.	.	.	16ee
.	.	.	16ee
.	.	.	16ee
.	.	.	16dd
.	.	.	16ee
=110	=110	=110	=110
2AA#_	2e_ 2c#_	2g_	16cc#
.	.	.	16ee
.	.	.	16ee
.	.	.	16ee
.	.	.	16cc#
.	.	.	16ee
.	.	.	16b
.	.	.	16ee
=111	=111	=111	=111
4AA#]	4e] 4c#]	4g]	16a#
.	.	.	16ee
.	.	.	16cc#
.	.	.	16ee
4r	4r	4r	16ee
.	.	.	16ee
.	.	.	16cc#
.	.	.	16ee
=112	=112	=112	=112
4AA#	4e 4c#	4g	16a#
.	.	.	16ee
.	.	.	16cc#
.	.	.	16ee
4r	4r	4r	16ee
.	.	.	16ee
.	.	.	16cc#
.	.	.	16ee
=113	=113	=113	=113
8BB	16d	8f#	8ddd
.	16d	.	.
8BB	16d	8f#	4bb
.	16d	.	.
8BB	16d	8f#	.
.	16d	.	.
8BB	16d	8f#	[8ff#
.	16d	.	.
=114	=114	=114	=114
8BB	16d	8f#	8ff#]
.	16d	.	.
8BB	16d	8f#	4dd
.	16d	.	.
8BB	16d	8f#	.
.	16d	.	.
8BB	16d	8f#	8b
.	16d	.	.
=115	=115	=115	=115
[2D#	[2A [2F#	[2c	16a
.	.	.	16a
.	.	.	16cc
.	.	.	16a
.	.	.	16a
.	.	.	16a
.	.	.	16g
.	.	.	16a
=116	=116	=116	=116
2D#_	2A_ 2F#_	2c_	16f#
.	.	.	16a
.	.	.	16a
.	.	.	16a
.	.	.	16f#
.	.	.	16a
.	.	.	16e
.	.	.	16a
=117	=117	=117	=117
4D#]	4A] 4F#]	4c]	16d#
.	.	.	16a
.	.	.	16f#
.	.	.	16a
4r	4r	4r	16a
.	.	.	16a
.	.	.	16f#
.	.	.	16a
=118	=118	=118	=118
4D#	4f#	4a	16d#
.	.	.	16a
.	.	.	16f#
.	.	.	16a
4r	4r	4r	16a
.	.	.	16a
.	.	.	16f#
.	.	.	16a
=119	=119	=119	=119
[2E	[2B	[2g	16G
.	.	.	16B
.	.	.	16e
.	.	.	16g
.	.	.	16b
.	.	.	16ee
.	.	.	16gg
.	.	.	16bb
=120	=120	=120	=120
2E]	2B]	2g]	16G
.	.	.	16B
.	.	.	16e
.	.	.	16g
.	.	.	16b
.	.	.	16ee
.	.	.	16gg
.	.	.	16bb
=121	=121	=121	=121
[2GG	[2B [2d	[2f	16G
.	.	.	16B
.	.	.	16d
.	.	.	16f
.	.	.	16g
.	.	.	16b
.	.	.	16dd
.	.	.	16ee
=122	=122	=122	=122
2GG]	2B] 2d]	4.f]	16ff
.	.	.	16dd
.	.	.	16ddd
.	.	.	16ccc
.	.	.	16bb
.	.	.	16aa
.	.	8d	16gg
.	.	.	16ff
=123	=123	=123	=123
4GG#	4B	4e	16ee
.	.	.	16ee
.	.	.	16ee
.	.	.	16ee
4r	8r	8r	16ee
.	.	.	16ee
.	8a	8cc	16ff
.	.	.	16ee
=124	=124	=124	=124
2r	4.g#	4.b	16ee
.	.	.	16ee
.	.	.	16dd#
.	.	.	16ee
.	.	.	16ee
.	.	.	16ee
.	8a	8cc	16ff
.	.	.	16ee
=125	=125	=125	=125
2r	4.g#	4.b	16ee
.	.	.	16ee
.	.	.	16dd#
.	.	.	16ee
.	.	.	16ee
.	.	.	16ee
.	8a	8cc	16ff
.	.	.	16ee
=126	=126	=126	=126
2r	8g#	8b	16ee
.	.	.	16ee
.	8a	8cc	16dd#
.	.	.	16ee
.	8g#	8b	16ee
.	.	.	16ee
.	8e	8g#	16dd
.	.	.	16ee
=127	=127	=127	=127
[2AA	[2e	[2g	16cc#
.	.	.	16a
.	.	.	16cc#
.	.	.	16ee
.	.	.	16aa
.	.	.	16ee
.	.	.	16aa
.	.	.	16ccc#
=128	=128	=128	=128
2AA]	4.e]	4.g]	16eee
.	.	.	16ccc#
.	.	.	16aa
.	.	.	16gg
.	.	.	16ee
.	.	.	16cc#
.	8c#	8e	16a
.	.	.	16g
=129	=129	=129	=129
4D	4d	4f#	16f#
.	.	.	16d
.	.	.	16d
.	.	.	16d
8r	8r	4r	16d
.	.	.	16d
8G	8B-	.	16e-
.	.	.	16d
=130	=130	=130	=130
4.F#	4.A	2r	16d
.	.	.	16d
.	.	.	16c#
.	.	.	16d
.	.	.	16d
.	.	.	16d
8G	8B-	.	16e-
.	.	.	16d
=131	=131	=131	=131
4.F#	4.A	2r	16d
.	.	.	16d
.	.	.	16c#
.	.	.	16d
.	.	.	16d
.	.	.	16d
8G	8B-	.	16e-
.	.	.	16d
=132	=132	=132	=132
8F#	8A	2r	16d
.	.	.	16d
8G	8B-	.	16c#
.	.	.	16d
8F#	8A	.	16d
.	.	.	16d
8D	8F#	.	16c
.	.	.	16d
=133	=133	=133	=133
[2G	[2B	[2d	16B
.	.	.	16G
.	.	.	16B
.	.	.	16d
.	.	.	16g
.	.	.	16b
.	.	.	16dd
.	.	.	16ff#
=134	=134	=134	=134
4.G]	2B]	2d]	16gg
.	.	.	16aa
.	.	.	16bb
.	.	.	16aa
.	.	.	16gg
.	.	.	16ff#
8G#	.	.	16ee
.	.	.	16dd
=135	=135	=135	=135
16A	4A	8e	16cc#
16A	.	.	16a
16A	.	8a	16aa
16A	.	.	16a
16A	4r	8b	16gg#
16A	.	.	16a
16A	.	8cc#	16gg
16A	.	.	16a
=136	=136	=136	=136
16A	2r	8dd	16ff#
16A	.	.	16a
16A	.	8d	16ff
16A	.	.	16a
16A	.	8e	16ee
16A	.	.	16a
16A	.	8f	16dd
16A	.	.	16a
=137	=137	=137	=137
8A	2r	8e	16cc#
.	.	.	16a
8A	.	8A	16a
.	.	.	16a
8G#	.	8B	16a
.	.	.	16a
8G	.	8c#	16a
.	.	.	16a
=138	=138	=138	=138
8F#	2r	8d	16a
.	.	.	16a
8F	.	8d	16a
.	.	.	16a
8E	.	8e	16a
.	.	.	16a
8D	.	8f	16a
.	.	.	16a
=139	=139	=139	=139
[2AA	4.c#	4.e	16a
.	.	.	16a
.	.	.	16b-
.	.	.	16a
.	.	.	16a
.	.	.	16a
.	8d	8f	16g#
.	.	.	16a
=140	=140	=140	=140
2AA_	4.c#	4.e	16a
.	.	.	16a
.	.	.	16b-
.	.	.	16a
.	.	.	16a
.	.	.	16a
.	8d	8f	16g#
.	.	.	16a
=141	=141	=141	=141
2AA_	4.c#	4.e	16a
.	.	.	16a
.	.	.	16b-
.	.	.	16a
.	.	.	16a
.	.	.	16a
.	8d	8f	16g#
.	.	.	16a
=142	=142	=142	=142
2AA_	8c#	8e	16a
.	.	.	16a
.	8d	8f	16g#
.	.	.	16a
.	8c#	8e	16a
.	.	.	16a
.	8d	8f	16g#
.	.	.	16a
=143	=143	=143	=143
4AA]	4c#	4e	4a
4r	4r	4r	8r
.	.	.	16a
.	.	.	16a
=144	=144	=144	=144
4.r	4.r	2r	16a
.	.	.	16a
.	.	.	16a
.	.	.	16a
.	.	.	16a
.	.	.	16a
8D	8A	.	16a
.	.	.	16a
=145	=145	=145	=145
8D	8A	4.r	4g
8D	8A	.	.
8D	8A	.	8f#
8E	8G	8c#	8e
=146	=146	=146	=146
8F#	4F#	8d	8d
8BB	.	8f#	8dd
8D	8r	8d	8b
8E	8d	8B	8g#
=147	=147	=147	=147
4AA	4c#	4c#	8a
.	.	.	8A
4r	4r	4r	8r
.	.	.	16ee
.	.	.	16ee
=148	=148	=148	=148
4.r	4.r	4.r	16ee
.	.	.	16ee
.	.	.	16ee
.	.	.	16ee
.	.	.	16ee
.	.	.	16ee
8A	8e	8g	16ee
.	.	.	16ee
=149	=149	=149	=149
8A	8e	8g	4dd
8A	8e	8g	.
8A	8e	8g	8cc#
8B	8e	8g	8b
=150	=150	=150	=150
4.c#	4.e	4.g	8a
.	.	.	8aa
.	.	.	8gg
8A	8e	8g	8cc#
=151	=151	=151	=151
4d	4d	4f#	8dd
.	.	.	8d
4r	4r	4r	8r
.	.	.	16d
.	.	.	16d
=152	=152	=152	=152
2r	2r	2r	16d
.	.	.	16d
.	.	.	16d
.	.	.	16d
.	.	.	16d
.	.	.	16d
.	.	.	16d
.	.	.	16d
=153	=153	=153	=153
8r	8r	8r	8G
16GG	8d	8g	8b
16BB	.	.	.
8D	8d	8f#	8a
8r	8r	8r	16d
.	.	.	16d
=154	=154	=154	=154
2r	2r	2r	16d
.	.	.	16d
.	.	.	16d
.	.	.	16d
.	.	.	16d
.	.	.	16d
.	.	.	16d
.	.	.	16d
=155	=155	=155	=155
8r	8r	8r	8A
8C#	8A	8e	8g
8D	8D	8d	8f#
8r	8r	8d	16d
.	.	.	16d
=156	=156	=156	=156
8r	8r	8c#	16d
.	.	.	16d
8DD	8F#	8c	16d
.	.	.	16d
8EE	8G	8B	16d
.	.	.	16d
8FF#	8F#	8A#	16d
.	.	.	16d
=157	=157	=157	=157
4GG	8G	8B	8G
.	8E	8c#	8b
8FF#	8F#	8d	8a
8D	8d	8r	16d
.	.	.	16d
=158	=158	=158	=158
8C#	8e	8r	16d
.	.	.	16d
8C	8f#	8A	16d
.	.	.	16d
8BB	8g	8G	16d
.	.	.	16d
8BB-	8g#	8d	16d
.	.	.	16d
=159	=159	=159	=159
8AA	8a	8c#	8A
8C#	8A	8e	8g
8D	8d	8d	8f#
8r	8r	8r	16d
.	.	.	16c#
=160	=160	=160	=160
8D	8A	8f#	16d
.	.	.	16A
8r	8r	8r	16f#
.	.	.	16e
8D	8A	8f#	16f#
.	.	.	16d
8r	8r	8r	16a
.	.	.	16g
=161	=161	=161	=161
8D	8A	8f#	16a
.	.	.	16f#
8r	8r	8r	16dd
.	.	.	16cc#
8D	8A	8f#	16dd
.	.	.	16a
8r	8r	8r	16ff#
.	.	.	16ee
=162	=162	=162	=162
4D	4A	4f#	16ff#
.	.	.	16dd
.	.	.	16aa
.	.	.	16ff#
8r	8r	8r	16ddd
.	.	.	16aa
16DD	8d	8f#	16ff#
16FF#	.	.	16dd
=163	=163	=163	=163
4AA	8c#	8e	16a
.	.	.	16aa
.	8ee	8gg	16ccc#
.	.	.	16aa
4r	8dd	8ff#	16ddd
.	.	.	16aa
.	8d	8f#	16ff#
.	.	.	16dd
=164	=164	=164	=164
4AA	8c#	8e	16a
.	.	.	16aa
.	8ee	8gg	16ccc#
.	.	.	16aa
4r	8dd	8ff#	16ddd
.	.	.	16aa
.	8d	8f#	16ff#
.	.	.	16dd
=165	=165	=165	=165
4AA	8c#	8e	4a
.	4r	4r	.
4r	.	.	8r
.	8f#	8a	16cc#
.	.	.	16dd
=166	=166	=166	=166
2r	8g	[2a	16cc#
.	.	.	16dd
.	8f#	.	16ee
.	.	.	16dd
.	8f#	.	16ee
.	.	.	16dd
.	8f#	.	16cc#
.	.	.	16dd
=167	=167	=167	=167
2r	8g	2a_	16cc#
.	.	.	16dd
.	8f#	.	16ee
.	.	.	16dd
.	8f#	.	16ee
.	.	.	16dd
.	8f#	.	16cc#
.	.	.	16dd
=168	=168	=168	=168
2r	8g	2a]	16cc#
.	.	.	16dd
.	8f#	.	16ee
.	.	.	16dd
.	8f#	.	16ee
.	.	.	16dd
.	8f#	.	16gg
.	.	.	16ff#
=169	=169	=169	=169
8D	8f#	8a	16ee
.	.	.	16dd
8r	8r	8r	16bb
.	.	.	16aa
8D	8f#	8a	16gg
.	.	.	16ff#
8r	8r	8r	16ddd
.	.	.	16ccc#
=170	=170	=170	=170
16D	8f#	8a	16bb
16D	.	.	16aa
16D	8f#	8a	8fff#
16D	.	.	.
16D	8f#	8a	8fff#
16D	.	.	.
16D	8f#	8a	8fff#
16D	.	.	.
=171	=171	=171	=171
4D	4f#	4a	4fff#
4r	8r	4r	8r
.	8D	.	16f#
.	.	.	16d
=172	=172	=172	=172
2r	8E	2r	16g
.	.	.	16d
.	8F#	.	16a
.	.	.	16d
.	8G	.	16b
.	.	.	16d
.	8E	.	16cc#
.	.	.	16d
=173	=173	=173	=173
2r	4F#	8r	8dd
.	.	16cc#	8ee
.	.	16a	.
.	4r	16dd	8ff#
.	.	16a	.
.	.	16ee	8gg
.	.	16a	.
=174	=174	=174	=174
8r	2r	8ff#	8aa
8G	.	8d	8bb
8G	.	8e	8ccc#
8G#	.	8f	8ddd
=175	=175	=175	=175
8A	8r	8f#	2a
8A	16f#	16a	.
.	16d	16f#	.
8A	16f#	16a	.
.	16d	16f#	.
8A	16f#	16a	.
.	16d	16f#	.
=176	=176	=176	=176
8AA	4c#	4g	2ee
8AA	.	.	.
8AA	4G	4c#	.
8AA	.	.	.
=177	=177	=177	=177
8D	4F#	4d	4dd
8d	.	.	.
8D	4r	4r	8r
8r	.	.	8ff#
=178	=178	=178	=178
8r	8r	8r	4ff#
8B	8B	8d	.
8B	8B	8d	16ee
.	.	.	16dd
8B	8B	8d	16cc#
.	.	.	16b
=179	=179	=179	=179
8r	8r	8r	4a#
8F#	8c#	8e	.
8F#	8c#	8e	8r
8F#	8c#	8e	8ff#
=180	=180	=180	=180
8r	8r	8r	4ff#
8BB	8B	8d	.
8BB	8B	8d	16ee
.	.	.	16dd
8BB	8B	8d	16cc#
.	.	.	16b
=181	=181	=181	=181
8r	8r	8r	4a#
8FF#	8c#	8e	.
8FF#	8c#	8e	8r
8FF#	8c#	8e	8ff#
=182	=182	=182	=182
8r	8r	8r	4ff#
8BB	8B	8d	.
8BB	8B	8d	16ee
.	.	.	16dd
8BB	8F#	8d	16cc#
.	.	.	16b
=183	=183	=183	=183
4.C#	2A	4.e	8.a
.	.	.	32b
.	.	.	32a
.	.	.	8g
8D	.	8d	8f#
=184	=184	=184	=184
8GG	4B	8.B	8.e
8GG	.	.	.
.	.	16e	32f#
.	.	.	32g
8AA	8A	8d	8f#
8AA	8G	8c#	8e
=185	=185	=185	=185
8D	4F#	4d	4d
8AA	.	.	.
8DD	4r	8r	4r
8r	.	8ff#	.
=186	=186	=186	=186
8r	8r	4ff#	2r
8B	8d	.	.
8B	8d	16ee	.
.	.	16dd	.
8B	8d	16cc#	.
.	.	16b	.
=187	=187	=187	=187
8r	8r	4a#	8r
8c#	8e	.	16gg
.	.	.	16ff#
8c#	8e	8r	8ff#
8c#	8e	8ff#	8r
=188	=188	=188	=188
8r	8r	4ff#	2r
8B	8d	.	.
8B	8d	16ee	.
.	.	16dd	.
8B	8d	16cc#	.
.	.	16b	.
=189	=189	=189	=189
8r	8r	4a#	8r
8c#	8e	.	16gg
.	.	.	16ff#
8c#	8e	4r	8ff#
8c#	8e	.	8fff#
=190	=190	=190	=190
8r	8r	8r	4fff#
8BB	8f#	8dd	.
8BB	8f#	8dd	16eee
.	.	.	16ddd
8BB	8f#	8dd	16ccc#
.	.	.	16bb
=191	=191	=191	=191
4.C#	8g	4.ee 4.a	8.aa
.	8a	.	.
.	.	.	32bb
.	.	.	32aa
.	8a	.	8gg
8D	8a	8dd	8ff#
=192	=192	=192	=192
8G	2b	[2dd	[2ee
8G	.	.	.
8G	.	.	.
8G	.	.	.
=193	=193	=193	=193
8G	[2b-	2dd]	2ee_
8G	.	.	.
8G	.	.	.
8G	.	.	.
=194	=194	=194	=194
8G	2b-_	[2cc	2ee]
8G	.	.	.
8G	.	.	.
8G	.	.	.
=195	=195	=195	=195
8G	2b-]	2cc_	4.ee
8G	.	.	.
8G	.	.	.
8G	.	.	16dd
.	.	.	16ee
=196	=196	=196	=196
8F	2a	2cc]	[2ff
8F	.	.	.
8F	.	.	.
8F	.	.	.
=197	=197	=197	=197
8D	2g#	2b	2ff]
8D	.	.	.
8D	.	.	.
8D	.	.	.
=198	=198	=198	=198
8C#	[2a	4a	4ee 4a
8c#	.	.	.
8c#	.	[4ee	[4gg [4a
8c#	.	.	.
=199	=199	=199	=199
8d	2a]	4ee]	4gg] 4a]
8d	.	.	.
8d	.	4dd	4ff#
8d	.	.	.
=200	=200	=200	=200
4G	4b	4b	8ee
.	.	.	16aa#
.	.	.	16bb
4r	4r	4r	16aa#
.	.	.	16bb
.	.	.	16aa
.	.	.	16gg
=201	=201	=201	=201
4G	4g	4b	16ff#
.	.	.	16ee
.	.	.	16dd#
.	.	.	16ee
4r	4r	4r	16dd#
.	.	.	16ee
.	.	.	16gg
.	.	.	16ee
=202	=202	=202	=202
8A	4.d	4.f#	4.dd
8A	.	.	.
8A	.	.	.
8A	8c#	8g	8ee
=203	=203	=203	=203
8D	16d	8f#	8dd
.	16d	.	.
8D	16d	8f#	8ddd
.	16d	.	.
8E	16d	8g	8ccc#
.	16d	.	.
8F#	16d	8a	8ccc
.	16d	.	.
=204	=204	=204	=204
8G	16d	4g	8bb
.	16d	.	.
8G	16d	.	8bb-
.	16d	.	.
8A	16d	4r	8aa
.	16d	.	.
8B	16d	.	8gg#
.	16d	.	.
=205	=205	=205	=205
8A	4d	4.r	8aa
8B	.	.	16gg
.	.	.	16ee
8A	8r	.	16ff#
.	.	.	16dd
8A	8g	8A	16ee
.	.	.	16cc#
=206	=206	=206	=206
4D	8f#	16d	8dd
.	.	16d	.
.	8d	16d	8dd
.	.	16d	.
4r	8c#	16d	8ee
.	.	16d	.
.	8c	16d	8ff#
.	.	16d	.
=207	=207	=207	=207
2r	8B	16d	8gg
.	.	16d	.
.	8B-	16d	8gg#
.	.	16d	.
.	8A	16d	8aa
.	.	16d	.
.	8G#	16d	8bb
.	.	16d	.
=208	=208	=208	=208
8r	4A	4d	8aa
8BB	.	.	16gg
.	.	.	16ee
8AA	8r	8r	16ff#
.	.	.	16dd
8AA	8G	16c#	16ee
.	.	16e	16cc#
=209	=209	=209	=209
4D	4F#	4d	4dd
8r	4r	4r	8r
8AA	.	.	16a
.	.	.	16a
=210	=210	=210	=210
8BB-	2r	2r	16a
.	.	.	16a
8BB	.	.	16a
.	.	.	16a
8C	.	.	16a
.	.	.	16a
8C#	.	.	16a
.	.	.	16a
=211	=211	=211	=211
4.D	2r	2r	4g
.	.	.	8f#
8E	.	.	8e
=212	=212	=212	=212
8F#	2r	2r	8d
8BB	.	.	8dd
8D	.	.	8b
8E	.	.	8g#
=213	=213	=213	=213
4AA	4.r	2r	8a
.	.	.	8A
4r	.	.	8r
.	8A	.	16ee
.	.	.	16ee
=214	=214	=214	=214
2r	8B-	2r	16ee
.	.	.	16ee
.	8A	.	16ee
.	.	.	16ee
.	8d	.	16ee
.	.	.	16ee
.	8c#	.	16ee
.	.	.	16ee
=215	=215	=215	=215
2r	[2g	2r	4dd
.	.	.	8cc#
.	.	.	8b
=216	=216	=216	=216
2r	8g]	2r	8a
.	8f#	.	8aa
.	8e	.	8gg
.	8a	.	8cc#
=217	=217	=217	=217
2r	4d	2r	8dd
.	.	.	8d
.	4r	.	8r
.	.	.	16d
.	.	.	16d
=218	=218	=218	=218
2r	2r	2r	16d
.	.	.	16d
.	.	.	16d
.	.	.	16d
.	.	.	16d
.	.	.	16d
.	.	.	16d
.	.	.	16d
=219	=219	=219	=219
8r	8r	8r	8G
16GG	8d	8g	8b
16BB	.	.	.
8D	8d	8f#	8a
8r	8r	8r	16d
.	.	.	16d
=220	=220	=220	=220
2r	2r	2r	16d
.	.	.	16d
.	.	.	16d
.	.	.	16d
.	.	.	16d
.	.	.	16d
.	.	.	16d
.	.	.	16d
=221	=221	=221	=221
8r	8r	8r	8A
16C#	8A	8e	8g
16D	.	.	.
8D	8D	8d	8f#
16D	8r	8r	8r
16D	.	.	.
=222	=222	=222	=222
16D	2r	2r	2r
16D	.	.	.
16D	.	.	.
16D	.	.	.
16D	.	.	.
16D	.	.	.
16D	.	.	.
16D	.	.	.
=223	=223	=223	=223
8GG	8r	8r	8r
8G	8b	8dd	16bb
.	.	.	16ccc#
8F#	8a	8d	8ddd
16D	8r	8r	8r
16D	.	.	.
=224	=224	=224	=224
16D	2r	2r	2r
16D	.	.	.
16D	.	.	.
16D	.	.	.
16D	.	.	.
16D	.	.	.
16D	.	.	.
16D	.	.	.
=225	=225	=225	=225
8AA	8r	8r	8r
8C#	8a	8ee	16gg
.	.	.	32ff#
.	.	.	32gg
8D	8A	8dd	8ff#
8r	8r	8r	8r
=226	=226	=226	=226
8r	8r	8r	8r
8c#	8a	8ee	16gg
.	.	.	32ff#
.	.	.	32gg
8d	8a	8dd	8ff#
8r	8r	8r	8r
=227	=227	=227	=227
8r	8r	8r	8r
8c#	8a	8ee	16gg
.	.	.	32ff#
.	.	.	32gg
8d	8a	8dd	8ff#
8c#	8a	8ee	16gg
.	.	.	32ff#
.	.	.	32gg
=228	=228	=228	=228
8d	8a	8dd	8ff#
8c#	8a	8ee	8gg
8d	8a	8dd	8ff#
8c#	8a	8ee	16gg
.	.	.	32ff#
.	.	.	32gg
=229	=229	=229	=229
8d	8a	8dd	8ff#
8r	8r	8r	8r
[4G	[4g [4G	[4d [4dd	[4b [4bb
=230	=230	=230	=230
4G]	4g] 4G]	4d] 4dd]	4b] 4bb]
4r	4r	4r	16aa
.	.	.	16gg
.	.	.	16ff#
.	.	.	16ee
=231	=231	=231	=231
4A	4A	4f#	4dd
8r	4r	8r	4r
8A	.	16a	.
.	.	16a	.
=232	=232	=232	=232
8B-	2r	16a	2r
.	.	16a	.
8B	.	16a	.
.	.	16a	.
8c	.	16a	.
.	.	16a	.
8c#	.	16a	.
.	.	16a	.
=233	=233	=233	=233
4d	4.r	4g	4.r
4r	.	8f#	.
.	8a	8r	16aa
.	.	.	16aa
=234	=234	=234	=234
2r	8b-	2r	16aa
.	.	.	16aa
.	8b	.	16aa
.	.	.	16aa
.	8cc	.	16aa
.	.	.	16aa
.	8cc#	.	16aa
.	.	.	16aa
=235	=235	=235	=235
4.r	4dd	2r	4gg
.	4r	.	8ff#
8AA	.	.	16a
.	.	.	16a
=236	=236	=236	=236
8BB-	4.r	4.r	16a
.	.	.	16a
8BB	.	.	16a
.	.	.	16a
8C	.	.	16a
.	.	.	16a
8C#	8A	8e	16a
.	.	.	16a
=237	=237	=237	=237
[2D	4.A	[2e [2c#	[2g
.	8A	.	.
=238	=238	=238	=238
2D]	8B-	2e] 2c#]	2g]
.	8B	.	.
.	8c	.	.
.	8c#	.	.
=239	=239	=239	=239
4DD	4d	4d	4f#
8r	8r	8r	8r
8AA	16A	16d	16f#
.	16A	16d	16f#
=240	=240	=240	=240
8FF#	16A	16d	16f#
.	16A	16d	16f#
8FF	16A	16d	16f#
.	16A	16d	16f#
8EE	16A	16d	16f#
.	16A	16d	16f#
8EE-	16A	16d	16f#
.	16A	16d	16f#
=241	=241	=241	=241
4DD	8A	4d	4f#
.	4r	.	.
8r	.	8r	8r
16DD	16A	16d	16f#
16CC#	16A	16d	16f#
=242	=242	=242	=242
16DD	16A	16d	16f#
16CC#	16A	16d	16f#
16DD	16A	16d	16f#
16CC#	16A	16d	16f#
16DD	16A	16d	16f#
16CC#	16A	16d	16f#
16DD	16A	16d	16f#
16CC#	16A	16d	16f#
=243	=243	=243	=243
4DD	4A	4d	4f#
4r	4r	4r	4r
==	==	==	==
*-	*-	*-	*-
!!!RWG1: This file contains only pitch and duration data.
!!!RWG2: Transposing instruments are not transposed.
!!!RWG3: Spines may have incompatible meters.
!!!RWG4: Durations of rests and tied notes may be interpreted.
!!!RWG: Key is interpreted using the Humdrum key tool.
!!!GTL: 6 Quartetti ("Prussian")
!!!OPT: The Frog
!!!AFT: stage1
!!!END: 1997/04/15
!!!KEY: 634292999
!!!EMD: Converted from MuseData to Humdrum Dec 16, 2000, by Andreas Kornstaedt using muse2kern.
!!!EMD: Manual editing by Craig Sapp, Nov 2001
